app/images/logo/logo.svg

<svg width="147" height="54" viewBox="0 0 147 54" fill="none" xmlns="http://www.w3.org/2000/svg">
<g clip-path="url(#clip0_52_2706)">
<path d="M5.97517 48.5446C4.48279 48.5446 3.48909 47.5669 3.15639 45.9371L0.172361 34.2041C0.036383 33.8395 -0.0201795 33.4508 0.00638003 33.0632C-0.00651423 32.8078 0.0477974 32.5536 0.164027 32.3252C0.280257 32.0967 0.454434 31.9019 0.669577 31.7598C0.872995 31.5845 1.10974 31.451 1.36597 31.3671C1.6222 31.2831 1.89279 31.2505 2.16196 31.2709C2.40294 31.2372 2.64838 31.2537 2.88254 31.3192C3.11671 31.3847 3.33443 31.4978 3.52175 31.6512C3.70907 31.8047 3.86186 31.9951 3.97031 32.2103C4.07877 32.4254 4.1405 32.6606 4.15155 32.9007L6.47239 43.6559L9.45644 32.9007C9.57889 32.3978 9.88152 31.9558 10.3084 31.6562C10.7353 31.3566 11.2576 31.2197 11.7787 31.2709C13.1051 31.2709 13.9343 31.7598 14.0996 32.9007L17.2496 43.6559L19.4052 33.2264C19.7364 31.9208 20.3996 31.2709 21.56 31.2709C22.0865 31.2264 22.6093 31.3903 23.0134 31.7264C23.4176 32.0625 23.6702 32.5433 23.7156 33.0632C23.7156 33.3889 23.5496 33.8777 23.5496 34.2041L20.2336 45.9378C20.1231 46.6467 19.8384 47.3181 19.4044 47.8934C18.7717 48.3259 18.0183 48.5531 17.2488 48.5432C16.6114 48.5339 15.9937 48.3232 15.4864 47.9419C14.9792 47.5606 14.6089 47.0288 14.4301 46.4245L11.7787 36.6485L9.12595 46.1003C8.62801 47.7301 7.6328 48.5446 5.97517 48.5446ZM37.3108 31.2709C37.9813 31.2199 38.6485 31.4045 39.1945 31.7922C39.7405 32.1799 40.1302 32.7456 40.2948 33.3896L45.1032 45.6114C45.2686 45.974 45.3802 46.3583 45.4344 46.7524C45.3866 47.2536 45.1499 47.7188 44.7712 48.0558C44.3344 48.3623 43.8146 48.5325 43.2788 48.5446C42.7536 48.5135 42.2504 48.3254 41.8359 48.0053C41.4215 47.6853 41.1153 47.2482 40.958 46.7524L40.2948 44.6337H33.8295L33.0004 46.7524C32.6684 47.8933 32.0052 48.5446 31.0108 48.5446C30.7416 48.5651 30.471 48.5324 30.2148 48.4485C29.9586 48.3646 29.7218 48.231 29.5183 48.0558C29.1865 47.7021 29.0081 47.2343 29.0212 46.7524C28.9821 46.3644 29.0391 45.9728 29.1872 45.6114L33.9955 33.7152C34.658 32.0855 35.8191 31.2709 37.3108 31.2709ZM37.1448 35.3451L34.9892 41.3747H39.1344L37.1448 35.3451ZM52.7296 34.0417C52.7296 32.2493 53.3928 31.2716 54.8852 31.2716C56.2116 31.2716 56.8748 32.2493 56.8748 34.0417V44.7968H60.522C62.5116 44.7968 63.506 45.2857 63.506 46.5892C63.506 47.7301 62.5116 48.2189 60.522 48.2189H55.5498C54.7964 48.2954 54.0385 48.1235 53.3943 47.7301C53.1429 47.5083 52.9508 47.2288 52.8351 46.9161C52.7194 46.6034 52.6837 46.2674 52.7311 45.9378L52.7296 34.0417ZM74.7811 45.7746C74.7811 47.5669 74.118 48.5454 72.6256 48.5454C71.2992 48.5454 70.636 47.5676 70.636 45.7746V34.0409C70.636 32.2487 71.2992 31.2709 72.6256 31.2709C74.118 31.2709 74.7811 32.2487 74.7811 34.0409V45.7746ZM83.0708 39.9082C83.0258 37.6285 83.8551 35.4163 85.3923 33.7152C86.2455 32.8957 87.2598 32.2563 88.3709 31.8362C89.4829 31.4159 90.6694 31.2236 91.8593 31.2709C93.0751 31.2087 94.291 31.3935 95.4316 31.814C96.5722 32.2344 97.6141 32.8815 98.4907 33.7152C100.149 35.3451 100.813 37.3006 100.813 39.9082C100.873 41.0422 100.699 42.1765 100.299 43.2415C99.9004 44.3064 99.2852 45.2796 98.4907 46.101C97.6141 46.9347 96.5722 47.5818 95.4316 48.0023C94.291 48.4227 93.0751 48.6076 91.8593 48.5454C90.6694 48.5926 89.4829 48.4003 88.3718 47.98C87.2598 47.5597 86.2464 46.9205 85.3931 46.101C83.8555 44.4 83.0259 42.1879 83.0708 39.9082ZM87.5471 39.9082C87.4718 41.1278 87.8231 42.336 88.5423 43.3303C88.9135 43.8537 89.4111 44.2771 89.99 44.5617C90.5699 44.8464 91.212 44.9833 91.8584 44.96C92.5308 45.0024 93.2032 44.8749 93.8125 44.5898C94.4217 44.3047 94.9478 43.8712 95.3407 43.3303C95.9906 42.3043 96.3351 41.1184 96.3351 39.9082C96.3351 38.6979 95.9906 37.512 95.3407 36.486C94.9478 35.945 94.4217 35.5115 93.8125 35.2265C93.2032 34.9413 92.5308 34.814 91.8584 34.8562C91.2094 34.8148 90.5603 34.9438 89.9779 35.2301C89.3955 35.5164 88.9005 35.9496 88.5423 36.486C87.8231 37.4804 87.4718 38.6886 87.5471 39.9082ZM111.422 35.0194C110.48 35.0916 109.531 35.0367 108.604 34.8562C107.443 34.693 106.78 34.2063 106.78 33.2264C106.78 32.0855 107.775 31.4341 109.764 31.4341H117.222C119.212 31.4341 120.206 32.084 120.206 33.2264C120.206 34.2041 119.543 34.693 118.549 34.8562C117.565 35.0334 116.562 35.0883 115.564 35.0194V45.7746C115.564 47.5669 114.901 48.5454 113.574 48.5454C112.082 48.5454 111.419 47.5676 111.419 45.7746L111.422 35.0194Z" fill="#212126"/>
<path fill-rule="evenodd" clip-rule="evenodd" d="M115.052 19.6337C115.051 19.079 115.216 18.5363 115.528 18.0747C115.84 17.6131 116.283 17.2532 116.802 17.0407C117.322 16.8281 117.893 16.7725 118.443 16.8809C118.994 16.9892 119.501 17.2566 119.897 17.6493C120.294 18.0419 120.564 18.5421 120.673 19.0864C120.782 19.6307 120.725 20.1947 120.509 20.7069C120.292 21.2191 119.928 21.6565 119.46 21.9636C118.992 22.2707 118.442 22.4337 117.881 22.432H115.052V19.6337ZM123.088 19.6597C123.083 18.2961 122.532 16.99 121.556 16.0256C120.58 15.0613 119.257 14.517 117.876 14.511C117.026 14.5115 116.19 14.7197 115.441 15.1169C115.713 14.4995 116.101 13.9386 116.585 13.464C117.333 12.729 118.285 12.229 119.32 12.0271C120.356 11.8251 121.428 11.9302 122.403 12.3291C123.378 12.7281 124.212 13.403 124.799 14.2688C125.387 15.1347 125.702 16.1529 125.705 17.1951V22.476L122.24 22.4594C122.793 21.6279 123.088 20.6547 123.088 19.6597ZM128.027 22.476V17.1951C128.03 15.802 127.643 14.435 126.909 13.2452C126.175 12.0553 125.123 11.0888 123.868 10.4523C122.613 9.8157 121.205 9.53385 119.798 9.63779C118.391 9.74173 117.041 10.2274 115.896 11.0413C116.276 10.3226 116.765 9.66519 117.345 9.09158C118.456 7.9975 119.87 7.25284 121.409 6.95157C122.948 6.6503 124.543 6.8059 125.993 7.39876C127.442 7.99161 128.681 8.99515 129.554 10.2828C130.426 11.5704 130.893 13.0844 130.896 14.6338L130.904 23.7989C130.905 24.1326 130.927 24.4658 130.969 24.7969C131.219 26.6146 132.127 28.2815 133.524 29.4894C134.923 30.6975 136.716 31.3648 138.574 31.3682C140.174 31.3704 141.734 30.8752 143.034 29.9528C142.655 30.67 142.169 31.3271 141.593 31.9026C140.482 32.9965 139.068 33.741 137.529 34.0424C135.99 34.3437 134.395 34.1883 132.945 33.5959C131.496 33.0034 130.256 32.0003 129.382 30.713C128.509 29.4258 128.041 27.9119 128.038 26.3624L128.027 22.476ZM133.231 18.5238L136.694 18.5318C136.061 19.4854 135.768 20.62 135.86 21.7566C135.952 22.8933 136.425 23.9672 137.204 24.809C137.983 25.651 139.023 26.213 140.16 26.4063C141.298 26.5997 142.469 26.4136 143.487 25.8772C143.215 26.4923 142.831 27.0527 142.353 27.5308C141.605 28.2689 140.653 28.7715 139.616 28.9751C138.581 29.1787 137.506 29.0743 136.53 28.6749C135.553 28.2755 134.718 27.5992 134.131 26.7315C133.543 25.8637 133.23 24.8434 133.23 23.7996L133.231 18.5238ZM133.213 16.2247V14.636C133.213 13.3051 132.949 11.9871 132.433 10.7574C131.917 9.52777 131.162 8.41043 130.209 7.46921C128.284 5.56834 125.674 4.50029 122.953 4.5C121.604 4.49986 120.27 4.76186 119.025 5.27106C117.78 5.78026 116.648 6.52667 115.695 7.46768C113.771 9.36814 112.689 11.9459 112.689 14.6338V22.7757C112.689 24.3391 113.583 24.7723 114.882 24.7723H125.715V26.361C125.715 29.049 126.797 31.6268 128.721 33.5275C130.646 35.4281 133.256 36.4959 135.978 36.4959C138.699 36.4959 141.31 35.4281 143.234 33.5275C145.158 31.6268 146.24 29.049 146.24 26.361V21.3683L146.247 21.3517V18.2834C146.263 18.0015 146.217 17.7196 146.112 17.4569C146.007 17.1942 145.846 16.9569 145.64 16.7611C145.434 16.5654 145.188 16.4159 144.918 16.3226C144.648 16.2294 144.361 16.1948 144.077 16.2211H133.213V16.2247ZM141.044 24.168C140.671 24.168 140.303 24.0955 139.958 23.9546C139.614 23.8138 139.301 23.6073 139.038 23.3471C138.774 23.0868 138.565 22.7779 138.422 22.4379C138.279 22.0979 138.206 21.7334 138.206 21.3654C138.206 20.9973 138.279 20.633 138.422 20.2929C138.565 19.9529 138.774 19.6439 139.038 19.3837C139.301 19.1235 139.614 18.9171 139.958 18.7762C140.303 18.6354 140.671 18.5629 141.044 18.5629H143.878V21.3611C143.879 22.1042 143.58 22.8172 143.049 23.3433C142.517 23.8695 141.796 24.1666 141.044 24.168Z" fill="#1D53C0"/>
</g>
<defs>
<clipPath id="clip0_52_2706">
<rect width="146.25" height="54" fill="white"/>
</clipPath>
</defs>
</svg>

<svg width="147" height="54" fill="none" xmlns="http://www.w3.org/2000/svg"><g clip-path="url(#clip0_52_2706)"><path d="M5.975 48.545c-1.492 0-2.486-.978-2.819-2.608L.172 34.204a2.73 2.73 0 01-.166-1.14A1.485 1.485 0 01.67 31.76a2.038 2.038 0 011.493-.49 1.767 1.767 0 011.36.38 1.73 1.73 0 01.63 1.25l2.32 10.755L9.456 32.9a2.14 2.14 0 01.852-1.245c.427-.3.95-.436 1.47-.385 1.327 0 2.156.489 2.322 1.63l3.15 10.755 2.155-10.43c.331-1.305.995-1.955 2.155-1.955a2.01 2.01 0 011.453.455c.405.337.657.817.703 1.337 0 .326-.166.815-.166 1.141l-3.316 11.734a4.363 4.363 0 01-.83 1.955 3.736 3.736 0 01-2.155.65 3.007 3.007 0 01-1.763-.601 2.945 2.945 0 01-1.056-1.517l-2.651-9.776L9.126 46.1c-.498 1.63-1.493 2.445-3.15 2.445zM37.311 31.27a2.878 2.878 0 011.883.521c.546.388.936.954 1.1 1.598l4.81 12.221c.165.363.276.747.33 1.141a2 2 0 01-.663 1.304 2.705 2.705 0 01-1.492.489 2.614 2.614 0 01-1.443-.54 2.563 2.563 0 01-.878-1.253l-.663-2.118H33.83L33 46.752c-.332 1.141-.995 1.793-1.99 1.793a2.057 2.057 0 01-1.492-.49 1.832 1.832 0 01-.497-1.303 2.38 2.38 0 01.166-1.14l4.808-11.897c.663-1.63 1.824-2.444 3.316-2.444zm-.166 4.074l-2.156 6.03h4.145l-1.99-6.03zm15.585-1.303c0-1.793.663-2.77 2.155-2.77 1.327 0 1.99.977 1.99 2.77v10.755h3.647c1.99 0 2.984.489 2.984 1.792 0 1.141-.994 1.63-2.984 1.63H55.55a3.466 3.466 0 01-2.156-.489 1.998 1.998 0 01-.663-1.792l-.001-11.896zm22.05 11.734c0 1.792-.663 2.77-2.155 2.77-1.327 0-1.99-.977-1.99-2.77V34.04c0-1.792.663-2.77 1.99-2.77 1.492 0 2.155.978 2.155 2.77v11.734zm8.29-5.867a8.971 8.971 0 012.321-6.193 8.785 8.785 0 012.979-1.879 8.87 8.87 0 013.488-.565 9 9 0 013.573.543 8.91 8.91 0 013.059 1.901c1.658 1.63 2.322 3.586 2.322 6.193a8.239 8.239 0 01-.514 3.334 8.297 8.297 0 01-1.808 2.859 8.912 8.912 0 01-3.06 1.901 9.002 9.002 0 01-3.572.543 8.865 8.865 0 01-3.487-.565 8.781 8.781 0 01-2.979-1.879 8.97 8.97 0 01-2.322-6.193zm4.476 0a5.282 5.282 0 00.995 3.422c.371.524.87.947 1.448 1.232a3.92 3.92 0 001.868.398 4.016 4.016 0 001.954-.37 3.965 3.965 0 001.529-1.26 6.394 6.394 0 000-6.844 3.964 3.964 0 00-1.528-1.26 4.017 4.017 0 00-1.955-.37 3.727 3.727 0 00-1.88.374 3.674 3.674 0 00-1.436 1.256 5.282 5.282 0 00-.995 3.422zm23.875-4.889a10.54 10.54 0 01-2.818-.163c-1.161-.163-1.824-.65-1.824-1.63 0-1.14.995-1.792 2.984-1.792h7.458c1.99 0 2.984.65 2.984 1.792 0 .978-.663 1.467-1.657 1.63-.984.177-1.987.232-2.985.163v10.756c0 1.792-.663 2.77-1.99 2.77-1.492 0-2.155-.977-2.155-2.77l.003-10.756z" fill="#212126"/><path fill-rule="evenodd" clip-rule="evenodd" d="M115.052 19.634a2.774 2.774 0 01.476-1.56 2.832 2.832 0 011.274-1.033 2.871 2.871 0 013.095.608c.397.393.667.893.776 1.437a2.769 2.769 0 01-.164 1.62 2.82 2.82 0 01-1.049 1.258 2.864 2.864 0 01-1.579.468h-2.829v-2.798zm8.036.026a5.135 5.135 0 00-1.532-3.634 5.27 5.27 0 00-3.68-1.515 5.2 5.2 0 00-2.435.606 5.318 5.318 0 011.144-1.653 5.369 5.369 0 012.735-1.437 5.41 5.41 0 013.083.302 5.333 5.333 0 012.396 1.94c.588.866.903 1.884.906 2.926v5.281l-3.465-.017a5.055 5.055 0 00.848-2.8zm4.939 2.816v-5.28a7.49 7.49 0 00-1.118-3.95 7.62 7.62 0 00-3.041-2.794 7.738 7.738 0 00-7.972.59 8.008 8.008 0 011.449-1.95 7.974 7.974 0 014.064-2.14 8.038 8.038 0 014.584.447 7.925 7.925 0 013.561 2.884 7.785 7.785 0 011.342 4.35l.008 9.166c.001.334.023.667.065.998a7.57 7.57 0 002.555 4.692 7.749 7.749 0 005.05 1.88 7.69 7.69 0 004.46-1.416 8.12 8.12 0 01-1.441 1.95 7.976 7.976 0 01-4.064 2.14 8.041 8.041 0 01-4.584-.447 7.933 7.933 0 01-3.563-2.883 7.776 7.776 0 01-1.344-4.35l-.011-3.887zm5.204-3.952l3.463.008a5.086 5.086 0 00.51 6.277 5.218 5.218 0 002.956 1.597 5.254 5.254 0 003.327-.529 5.464 5.464 0 01-1.134 1.654 5.368 5.368 0 01-2.737 1.444c-1.035.204-2.11.1-3.086-.3a5.328 5.328 0 01-2.399-1.944 5.224 5.224 0 01-.901-2.931l.001-5.276zm-.018-2.3v-1.588c0-1.33-.264-2.649-.78-3.879a10.131 10.131 0 00-2.224-3.288 10.33 10.33 0 00-7.256-2.969c-1.349 0-2.683.262-3.928.771a10.275 10.275 0 00-3.33 2.197 10.073 10.073 0 00-3.006 7.166v8.142c0 1.563.894 1.996 2.193 1.996h10.833v1.589c0 2.688 1.082 5.266 3.006 7.167a10.33 10.33 0 007.257 2.968 10.33 10.33 0 007.256-2.968 10.074 10.074 0 003.006-7.167v-4.993l.007-.016v-3.069a1.931 1.931 0 00-.135-.826 1.968 1.968 0 00-1.194-1.134 2.01 2.01 0 00-.841-.102h-10.864v.004zm7.831 7.944a2.87 2.87 0 01-2.006-.82 2.765 2.765 0 01-.616-3.054 2.837 2.837 0 012.622-1.73h2.834v2.797a2.786 2.786 0 01-.829 1.982 2.86 2.86 0 01-2.005.825z" fill="#1D53C0"/></g><defs><clipPath id="clip0_52_2706"><path fill="#fff" d="M0 0h146.25v54H0z"/></clipPath></defs></svg>
